!!!COM: Music21
!!!OTL: barndance_Silver-Bell-Schottische--The
!!!OMV: barndance_Silver-Bell-Schottische--The
**kern
*clefG2
*k[f#c#]
*D:
*M4/4
=1
12aL
12dd
12bbJ
=
4aa
12ggL
12aa
12ggJ
4b
4cc#
=
4b
8.aL
16g#XJk
4a
8.aL
16ff#Jk
=
8.ff#L
16ggJk
8.ggL
16aJk
4cc#
8.gL
16bJk
=
8.aL
16ddJk
8.ddL
16f#Jk
4a
8.ddL
16bbJk
!!linebreak:original
=
12aaL
12bb
12aaJ
4gg
12bL
12b
12bJ
8.cc#L
16eeJk
=
12bL
12cc#
12bJ
8.aL
16g#XJk
4a
8.ddL
16ff#Jk
=
12cc#L
12cc#
12cc#J
8.ff#L
16aaJk
12cc#L
12cc#
12cc#J
8.eeL
16ff#Jk
=
4dd
12ddL
12dd
12ddJ
4dd
4ryy
=||
*M4/4
12aL
12dd
12bbJ
!!linebreak:original
=
4aa
12ggL
12aa
12ggJ
4b
4cc#
=
4b
8.aL
16g#XJk
4a
8.aL
16ff#Jk
=
8.ff#L
16ggJk
8.ggL
16aJk
4cc#
8.gL
16bJk
=
8.aL
16ddJk
8.ddL
16f#Jk
4a
8.ddL
16bbJk
=
12aaL
12bb
12aaJ
4gg
12bL
12b
12bJ
8.cc#L
16eeJk
!!linebreak:original
=
12bL
12cc#
12bJ
8.aL
16g#XJk
4a
8.ddL
16ff#Jk
=
12cc#L
12cc#
12cc#J
8.ff#L
16aaJk
12cc#L
12cc#
12cc#J
8.eeL
16ff#Jk
=
4dd
12ddL
12dd
12ddJ
4dd
4ryy
=||
8.aL
16aaJk
2.ryy
=
4gg
8.ggL
16ff#Jk
4ee
8.eeL
16ddJk
!!linebreak:original
=
8.cc#L
16ddJk
8.cc#L
16bJk
4cc#
8.aL
16ggJk
=
4ff#
8.ff#L
16eeJk
12ddL
12ee
12ddJ
8.ddL
16bJk
=
8.aL
16bJk
8.aL
16g#XJk
4a
12aL
12dd
12aaJ
=
8.ggL
16aaJk
8.ggL
16ff#Jk
8.eeL
16ff#Jk
12ff#L
12ee
12ddJ
!!linebreak:original
=
8.cc#L
16ddJk
8.cc#L
16bJk
4cc#
12aL
12dd
12ggJ
=
8.ff#L
16ddJk
8.aL
16f#Jk
8.gL
16aJk
12cc#L
12dd
12eeJ
=
4dd
4a
4d
4ryy
=||
8.aL
16aaJk
2.ryy
=
4gg
8.ggL
16ff#Jk
4ee
8.eeL
16ddJk
!!linebreak:original
=
8.cc#L
16ddJk
8.cc#L
16bJk
4cc#
8.aL
16ggJk
=
4ff#
8.ff#L
16eeJk
12ddL
12ee
12ddJ
8.ddL
16bJk
=
8.aL
16bJk
8.aL
16g#XJk
4a
12aL
12dd
12aaJ
=
8.ggL
16aaJk
8.ggL
16ff#Jk
8.eeL
16ff#Jk
12ff#L
12ee
12ddJ
!!linebreak:original
=
8.cc#L
16ddJk
8.cc#L
16bJk
4cc#
12aL
12dd
12ggJ
=
8.ff#L
16ddJk
8.aL
16f#Jk
8.gL
16aJk
12cc#L
12dd
12eeJ
=
4dd
4a
4d
4ryy
=||
*-
